packages/tokens/icons/globeLocation/size32Px.svg

<svg viewBox="0 0 32 32" fill="none" xmlns="http://www.w3.org/2000/svg" width="1em" height="1em"><path d="M16 4C9.37258 4 4 9.37258 4 16C4 22.6274 9.37258 28 16 28C22.6274 28 28 22.6274 28 16C28 13.6046 27.2981 11.3731 26.0888 9.5" stroke="currentColor" stroke-linecap="round"/><path d="M27.1429 19.8972C26.2857 19.8972 25.176 19.9357 24.1028 19.8972C22.7657 19.7601 22.2971 17.8401 23.2342 16.5486C24.1714 15.2572 24.9714 15.9201 25.0285 15.4058C25.0857 14.8915 24.3143 14.4343 24.1429 13.7143C23.9715 12.9943 27.1429 11.5 27.1429 11.5" stroke="currentColor"/><path d="M6.57141 9.07626C7.41784 9.72262 8.01203 10.6442 8.25141 11.682C8.33386 12.5577 8.66719 13.391 9.21141 14.082C9.7257 14.5848 10.4571 14.6991 10.9714 15.2248C11.4857 15.7505 11.7943 16.5963 12.4571 16.6648C12.6951 16.656 12.9243 16.573 13.1128 16.4275C13.3013 16.282 13.4397 16.0813 13.5086 15.8534C13.6564 15.3609 13.6915 14.8414 13.6114 14.3334C13.5138 13.9486 13.5626 13.5413 13.7486 13.1905C13.9431 12.9863 14.2008 12.8535 14.48 12.8134C15.182 12.5508 15.7892 12.0837 16.2231 11.4726C16.657 10.8614 16.8978 10.1342 16.9143 9.38483C16.9372 9.2871 16.9372 9.18541 16.9143 9.08769C16.8725 8.95622 16.7965 8.83823 16.6941 8.74584C16.5917 8.65345 16.4665 8.58999 16.3314 8.56197C15.5428 8.34483 14.5143 8.74483 14.0457 8.0134C13.7917 7.50443 13.7438 7.12914 13.8571 6.57171C13.8857 5.49001 12.3157 4.92857 12 4.5" stroke="currentColor"/><path d="M17.5823 20.6851L17.5749 20.6213L17.5517 20.5615C17.4084 20.1928 17.171 19.8683 16.8632 19.6203C16.6309 19.4039 16.4505 19.1377 16.3355 18.8417C16.2221 18.5496 16.1754 18.2359 16.1985 17.9237C16.2557 17.6708 16.4005 17.446 16.6076 17.2893C16.8216 17.1274 17.0873 17.0492 17.3548 17.0696C18.0256 17.1244 18.403 17.3134 18.7451 17.5488C18.8364 17.6116 18.9371 17.6881 19.0476 17.772C19.3313 17.9876 19.6796 18.2522 20.0982 18.4593L20.1186 18.4694L20.1398 18.4776C20.3325 18.552 20.5097 18.6612 20.6627 18.7997C20.7403 18.8987 20.7983 19.0119 20.8334 19.1329C20.8705 19.2609 20.8813 19.395 20.8651 19.5272C20.7582 20.1651 20.4558 20.7541 19.9997 21.2129L19.9986 21.2139C19.4519 21.7669 18.9551 22.3671 18.5139 23.0074L18.5015 23.0254L18.4908 23.0443C18.3604 23.2741 18.2501 23.513 18.1499 23.7302L18.1459 23.7387C18.0415 23.9649 17.9473 24.1685 17.8394 24.3586L17.834 24.368L17.8291 24.3776C17.6651 24.698 17.3856 24.944 17.0474 25.0661C16.9335 25.0971 16.8122 25.0862 16.7054 25.0354C16.6106 24.9903 16.5331 24.9164 16.4835 24.8249C16.4686 24.7054 16.4715 24.5843 16.492 24.4655C16.6554 23.5901 16.9342 22.7404 17.3212 21.9385C17.541 21.5599 17.6327 21.1203 17.5823 20.6851Z" stroke="currentColor"/><path d="M25 6C25 6.37017 24.8919 6.84462 24.6876 7.39685C24.4856 7.94297 24.201 8.53464 23.8753 9.13009C23.2238 10.321 22.4266 11.4928 21.8521 12.2917C21.674 12.5394 21.326 12.5394 21.1479 12.2917C20.5734 11.4928 19.7762 10.321 19.1247 9.13009C18.799 8.53464 18.5144 7.94297 18.3124 7.39685C18.1081 6.84462 18 6.37017 18 6C18 4.86225 18.4001 3.99802 19.0151 3.41654C19.6344 2.83094 20.5062 2.5 21.5 2.5C22.4938 2.5 23.3656 2.83094 23.9849 3.41654C24.5999 3.99802 25 4.86224 25 6Z" stroke="currentColor"/><circle cx="21.5" cy="5.9999" r="1.1" stroke="currentColor"/></svg>

<svg xmlns="http://www.w3.org/2000/svg" fill="none" viewBox="0 0 32 32" width="1em" height="1em"><path stroke="currentColor" stroke-linecap="round" d="M16 4C9.373 4 4 9.373 4 16s5.373 12 12 12 12-5.373 12-12c0-2.395-.702-4.627-1.911-6.5"/><path stroke="currentColor" d="M27.143 19.897c-.857 0-1.967.039-3.04 0-1.337-.137-1.806-2.057-.869-3.348.937-1.292 1.737-.629 1.794-1.143.058-.514-.714-.972-.885-1.692-.172-.72 3-2.214 3-2.214M6.571 9.076a4.571 4.571 0 0 1 1.68 2.606c.083.876.416 1.709.96 2.4.515.503 1.246.617 1.76 1.143.515.526.823 1.371 1.486 1.44a1.142 1.142 0 0 0 1.052-.812 3.43 3.43 0 0 0 .102-1.52 1.6 1.6 0 0 1 .138-1.143c.194-.204.452-.336.731-.377a3.749 3.749 0 0 0 2.434-3.428.651.651 0 0 0 0-.297.778.778 0 0 0-.583-.526c-.788-.217-1.817.183-2.285-.549-.254-.509-.302-.884-.189-1.441C13.886 5.49 12.316 4.929 12 4.5m5.582 16.185-.007-.064-.023-.06a2.26 2.26 0 0 0-.689-.94 2.107 2.107 0 0 1-.665-1.697 1.1 1.1 0 0 1 1.157-.854c.67.054 1.048.243 1.39.479.091.063.192.14.303.223.283.216.632.48 1.05.687l.02.01.022.009c.192.074.37.183.523.322a.985.985 0 0 1 .202.727A3.123 3.123 0 0 1 20 21.213h-.001a13.222 13.222 0 0 0-1.485 1.794l-.012.018-.011.02c-.13.23-.24.468-.341.685l-.004.009c-.105.226-.199.43-.307.62l-.005.009-.005.01a1.42 1.42 0 0 1-.782.688.494.494 0 0 1-.564-.241c-.014-.12-.012-.24.009-.36a9.994 9.994 0 0 1 .83-2.526c.219-.38.31-.819.26-1.254ZM25 6c0 .37-.108.845-.312 1.397a13.408 13.408 0 0 1-.813 1.733c-.651 1.191-1.448 2.363-2.023 3.162a.427.427 0 0 1-.704 0c-.575-.8-1.372-1.971-2.023-3.162a13.408 13.408 0 0 1-.813-1.733C18.108 6.845 18 6.37 18 6c0-1.138.4-2.002 1.015-2.583.62-.586 1.491-.917 2.485-.917.994 0 1.866.33 2.485.917C24.6 3.998 25 4.862 25 6Z"/><circle cx="21.5" cy="6" r="1.1" stroke="currentColor"/></svg>
